X:1
T:Title
%%score { ( 1 3 5 ) | ( 2 4 ) }
L:1/8
M:3/4
K:Db
V:1 treble nm="Grand Piano"
V:3 treble 
V:5 treble 
V:2 treble 
V:4 treble 
V:1
 z6[Q:1/4=94] | F2 z2 z2 | F2 z2 z2 | d2- [Gd][Gc] [DFB][CFA] | B4 z2 | F2 B2 F>F | F2 c2 F>F | %7
 [Fd]3 c BA |[M:4/4] [DB]6 B>B |[M:3/4] d4 z2 | [DFA]2 [A,DF]2 F>F | d4 z2 |[M:7/8] A-A- A3 z2 | %13
[M:3/4] F2 z2 z2 | F2 z2 z2 | [DFBd]3 [C_F=Gc] [B,=FB][_F=F=A] |[M:2/4] [=DFB]4[K:bass] |] %17
V:2
 z2 z2 F>F | z2[K:treble] B2 F>F | z2[K:treble] c2 F>F | B,2- [E,B,][E,B,] F,F,, | %4
 F,2- [B,,,F,]2[K:treble] F>F | [B,D]6 | [=A,CE]6 | B,2[K:bass] z E [F,CE]2 | %8
[M:4/4] [B,,F,B,]6 z2 |[M:3/4] z2 z2 [G,,G,]2[K:treble] | D,2 D,2 z2 | %11
 [B,,,B,,]2 [E,B,]2 [_F,=G,C]2 |[M:7/8] C2- [E,C]3[K:treble] F>F | %13
[M:3/4][K:bass] z2[K:treble] B2 F>F | z2[K:treble] c2 F>F | [B,,,B,,]3 [C,,C,] [D,,D,][F,,F,] | %16
[M:2/4] [B,,B,]2 z2 |] %17
V:3
 x6 | [F,B,D]6 | [CE]6 | F2 z2 z2 | D6 | x6 | x6 | x6 |[M:4/4] x8 |[M:3/4] z2 z d .[_Fc]2 | x6 | %11
 z2 z d cB |[M:7/8] z2 G,3 z2 |[M:3/4] [F,B,D]6 | [CE]6 | x6 |[M:2/4] z2[K:bass] B,,,2 |] %17
V:4
 x6 | B,,6[K:treble] | A,,6[K:treble] | B,,2 z2 z2 | B,,2 z2[K:treble] z2 | x6 | x6 | %7
 z2[K:bass] B,2 z2 |[M:4/4] x8 |[M:3/4] G,,,2 [B,,,B,,]2 z[K:treble] B | x6 | x6 | %12
[M:7/8] [F,A,]2 z z z[K:treble] z2 |[M:3/4][K:bass] B,,6[K:treble] | =A,,6[K:treble] | x6 | %16
[M:2/4] x4 |] %17
V:5
 x6 | x6 | x6 | x6 | x6 | x6 | x6 | x6 |[M:4/4] x8 |[M:3/4] z2 [DG]2 z2 | x6 | z2 G2 z2 | %12
[M:7/8] x7 |[M:3/4] x6 | x6 | x6 |[M:2/4] x2[K:bass] x2 |] %17

